build/security/SafeCertificateOutline.svg

<svg xmlns="http://www.w3.org/2000/svg" fill="none" viewBox="0 0 24 24" focusable="false"><path d="M0 0H24V24H0z"/><path fill="#74767B" fill-rule="evenodd" d="M4 6.01496C4 5.41844 4.40599 4.89846 4.9847 4.75378L11.2724 3.18186C11.7501 3.06243 12.2499 3.06243 12.7276 3.18186L19.0153 4.75378C19.594 4.89846 20 5.41844 20 6.01497L20 11.2454C20 14.3485 18.4014 17.2327 15.77 18.8773L12.689 20.803C12.2674 21.0664 11.7326 21.0664 11.311 20.803L8.23001 18.8773C5.59858 17.2327 4 14.3485 4 11.2454L4 6.01496ZM18.7 6.01497L18.7 11.2454C18.7 13.9002 17.3323 16.3679 15.081 17.7749L12 19.7006L8.91901 17.7749C6.66767 16.3679 5.3 13.9002 5.3 11.2454L5.3 6.01496L11.5877 4.44304C11.8584 4.37537 12.1416 4.37537 12.4123 4.44304L18.7 6.01497ZM12.0588 13.3816C11.7888 13.6716 11.3288 13.6816 11.0488 13.4016L9.1875 11.5589C8.9375 11.3089 8.9375 10.8889 9.1875 10.6389C9.4375 10.3889 9.8575 10.3889 10.1075 10.6389L11.5288 12.0416L14.1596 9.21171C14.3996 8.94171 14.8196 8.93171 15.0796 9.17171C15.3396 9.41171 15.3596 9.82171 15.1196 10.0917L12.0588 13.3816Z"/></svg>

<svg xmlns="http://www.w3.org/2000/svg" fill="none" viewBox="0 0 24 24" focusable="false"><path fill="#74767B" fill-rule="evenodd" d="M4 6.01c0-.6.4-1.12.98-1.26l6.29-1.57c.48-.12.97-.12 1.45 0l6.29 1.57c.58.14.99.66.99 1.26v5.23c0 3.1-1.6 5.99-4.23 7.63l-3.09 1.93a1.3 1.3 0 0 1-1.37 0l-3.09-1.93A8.99 8.99 0 0 1 4 11.24zm14.7 0v5.23c0 2.66-1.37 5.12-3.62 6.53L12 19.7l-3.09-1.93a7.69 7.69 0 0 1-3.61-6.53V6.01l6.28-1.57c.27-.07.56-.07.83 0zm-7.66 7.39c.28.28.74.27 1.01-.02l3.06-3.29c.24-.27.22-.68-.04-.92a.65.65 0 0 0-.92.04l-2.63 2.83-1.42-1.41a.66.66 0 0 0-.92 0c-.25.25-.25.67 0 .92z"/></svg>
